assets/Face with head-bandage/Flat/face_with_head-bandage_flat.svg

<svg width="32" height="32" viewBox="0 0 32 32" fill="none" xmlns="http://www.w3.org/2000/svg">
<path d="M15.9989 29.9978C25.3333 29.9978 29.9978 23.7303 29.9978 15.9989C29.9978 8.26751 25.3333 2 15.9989 2C6.66443 2 2 8.26751 2 15.9989C2 23.7303 6.66443 29.9978 15.9989 29.9978Z" fill="#FFB02E"/>
<path d="M10.4191 21.2244C12.742 21.2244 14.6251 19.3414 14.6251 17.0185C14.6251 14.6956 12.742 12.8125 10.4191 12.8125C8.09621 12.8125 6.21313 14.6956 6.21313 17.0185C6.21313 19.3414 8.09621 21.2244 10.4191 21.2244Z" fill="white"/>
<path d="M21.5683 21.3011C23.9123 21.3011 25.8126 19.4009 25.8126 17.0568C25.8126 14.7127 23.9123 12.8125 21.5683 12.8125C19.2242 12.8125 17.324 14.7127 17.324 17.0568C17.324 19.4009 19.2242 21.3011 21.5683 21.3011Z" fill="white"/>
<path d="M21.4178 10.0068C21.6902 9.96136 21.9478 10.1454 21.9932 10.4178C22.1316 11.2481 23.0104 13 25.5 13C25.7762 13 26 13.2238 26 13.5C26 13.7761 25.7762 14 25.5 14C22.3897 14 21.2018 11.7518 21.0068 10.5822C20.9614 10.3098 21.1454 10.0522 21.4178 10.0068Z" fill="#402A32"/>
<path d="M18.1281 26.4896C17.232 24.8939 15.4022 24.1161 13.3714 24.9284C12.8586 25.1335 12.2767 24.8841 12.0715 24.3713C11.8664 23.8585 12.1159 23.2766 12.6286 23.0714C15.5978 21.8838 18.4881 23.046 19.8719 25.5103C20.1424 25.9918 19.9712 26.6014 19.4897 26.8719C19.0081 27.1423 18.3985 26.9711 18.1281 26.4896Z" fill="#402A32"/>
<path d="M14 17C14 18.6568 12.6569 20 11 20C9.34315 20 8 18.6568 8 17C8 15.3431 9.34315 14 11 14C12.6569 14 14 15.3431 14 17Z" fill="#402A32"/>
<path d="M24 17C24 18.6568 22.6569 20 21 20C19.3431 20 18 18.6568 18 17C18 15.3431 19.3431 14 21 14C22.6569 14 24 15.3431 24 17Z" fill="#402A32"/>
<path d="M2.10742 14.0037C14.586 14.4088 24.6597 7.68366 26.6446 6.2615C24.3127 3.63356 20.7644 2 15.9989 2C7.48228 2 2.8532 7.21736 2.10742 14.0037Z" fill="#F4F4F4"/>
<path d="M2.96167 10.4985L2.98024 10.2571C3.07355 10.0069 3.17352 9.76066 3.28016 9.51857C7.24448 9.77537 11.9319 8.9104 16.0667 7.05051C14.6409 6.33663 12.8565 5.91308 11.1098 5.68325C9.12438 5.42201 7.24159 5.41773 6.09912 5.49436C6.49721 5.12072 6.92429 4.77232 7.38039 4.45152C8.4817 4.44594 9.83623 4.50706 11.2403 4.6918C13.2883 4.96128 15.4962 5.50051 17.1755 6.52085C19.0177 5.58744 20.72 4.44796 22.1598 3.11456C22.4976 3.25245 22.8245 3.40216 23.1405 3.56317C17.9966 8.54214 9.49153 11.0008 2.96167 10.4985Z" fill="#D3D3D3"/>
</svg>

<svg xmlns="http://www.w3.org/2000/svg" width="32" height="32" fill="none"><path fill="#FFB02E" d="M15.999 29.998c9.334 0 13.999-6.268 13.999-14 0-7.73-4.665-13.998-14-13.998C6.665 2 2 8.268 2 15.999c0 7.731 4.664 13.999 13.999 13.999Z"/><path fill="#fff" d="M10.42 21.224a4.206 4.206 0 1 0 0-8.411 4.206 4.206 0 0 0 0 8.411ZM21.568 21.301a4.244 4.244 0 1 0 0-8.489 4.244 4.244 0 0 0 0 8.49Z"/><path fill="#402A32" d="M21.418 10.007a.5.5 0 0 1 .575.41C22.132 11.249 23.01 13 25.5 13a.5.5 0 1 1 0 1c-3.11 0-4.298-2.248-4.493-3.418a.5.5 0 0 1 .41-.575ZM18.128 26.49c-.896-1.596-2.726-2.374-4.757-1.562a1 1 0 0 1-.742-1.857c2.969-1.187 5.86-.025 7.243 2.44a1 1 0 1 1-1.744.979ZM14 17a3 3 0 1 1-6 0 3 3 0 0 1 6 0ZM24 17a3 3 0 1 1-6 0 3 3 0 0 1 6 0Z"/><path fill="#F4F4F4" d="M2.107 14.004c12.479.405 22.553-6.32 24.538-7.742C24.313 3.633 20.765 2 15.999 2 7.482 2 2.853 7.217 2.107 14.004Z"/><path fill="#D3D3D3" d="m2.962 10.498.018-.24c.094-.251.194-.497.3-.74 3.964.257 8.652-.608 12.787-2.467-1.426-.714-3.21-1.138-4.957-1.368-1.986-.261-3.868-.265-5.01-.189.397-.373.824-.722 1.28-1.042a29.055 29.055 0 0 1 3.86.24c2.048.27 4.256.809 5.935 1.829 1.843-.934 3.545-2.073 4.985-3.406.338.137.665.287.98.448-5.143 4.98-13.648 7.438-20.178 6.936Z"/></svg>
